svg/je.svg

<?xml version="1.0" encoding="UTF-8"?>
<svg width="1e3" height="600" version="1.0" viewBox="0 0 30 18" xmlns="http://www.w3.org/2000/svg" xmlns:xlink="http://www.w3.org/1999/xlink">
  <rect width="30" height="18" fill="#fff"/>
  <path d="m0 0v1.1562l13.062 7.8438-13.062 7.8438v1.1562h1.9688l13.031-7.8438 13.031 7.8438h1.9688v-1.1562l-13.062-7.8438 13.062-7.8438v-1.1562h-1.9688l-13.031 7.8438-13.031-7.8438h-1.9688z" fill="#df112d" fill-rule="evenodd"/>
  <g id="Jersey badge" transform="matrix(.040722 0 0 .040722 12.94 10.553) matrix(3 0 0 3 -308.86 -259.71)">
    <path id="shield" d="m132.66 22.233c3.156 12.778 1.425 28.56-12.829 37.316-14.255-8.7563-15.986-24.538-12.829-37.316 3.36-3.0546 18.632-4.9382 25.658 0z" fill="#e8112d" stroke="#000" stroke-width=".125"/>
    <path id="crown" d="m119.81 19.667c5.226 0 10.093 1.3832 12.962 3.1764 0.563-4.4059 2.561-8.8117 4.918-12.142-2.459-0.0513-3.561 1.2551-3.586 2.6127-0.615-1.7418-3.023-1.6394-3.766-0.6916 2.69 1.8187 0.615 5.0462-1.818 4.3803-1.143-0.3127-1.747-1.1097-1.961-2.2668 0.263-0.0176 0.524-0.1139 0.744-0.2925 0.567-0.46 0.654-1.2927 0.194-1.8598s-1.292-0.654-1.86-0.194c-0.567 0.46-0.654 1.2927-0.193 1.8598 0.15 0.1863 0.343 0.3185 0.551 0.3988-0.769 1.2552-2.148 1.632-3.136 1.3554-1.281-0.3586-1.819-1.5113-1.819-2.5359 0-2.664 2.561-3.0738 3.33-2.6127-0.051-1.7931-2.869-3.2276-3.74-1.7419 0.973-1.7418 0.922-4.2009-0.82-5.8403-1.741 1.6394-1.793 4.0985-0.819 5.8403-0.871-1.4857-3.689-0.05118-3.74 1.7419 0.768-0.4611 3.33-0.0513 3.33 2.6127 0 1.0246-0.538 2.1773-1.819 2.5359-0.988 0.2766-2.367-0.1002-3.137-1.3554 0.209-0.0803 0.401-0.2125 0.552-0.3988 0.46-0.5671 0.373-1.3998-0.194-1.8598s-1.4-0.3731-1.86 0.194-0.373 1.3998 0.194 1.8598c0.221 0.1786 0.482 0.2749 0.745 0.2925-0.214 1.1571-0.819 1.9541-1.961 2.2668-2.433 0.6659-4.508-2.5616-1.819-4.3803-0.742-0.9478-3.15-1.0502-3.765 0.6916-0.026-1.3576-1.127-2.664-3.586-2.6127 2.356 3.33 4.354 7.7358 4.918 12.142 2.869-1.7932 7.736-3.1764 12.961-3.1764z" fill="#f9dd16" stroke="#000" stroke-width=".125"/>
    <g id="leopard">
      <g fill="#f9dd16" stroke="#000" stroke-width=".125">
        <path id="body" d="m130.65 32.2c-0.315 0.0751-0.315 0.481-0.48 0.481 0.819-0.0226 1.217-0.248 1.465-0.6614-0.18 0.1653-0.023 0.481-0.083 0.5561 0.601-0.2104 0.887-0.7214 0.677-1.0671 0.135 0.1953 0.526 0.3006 0.646 0.3156-0.421-0.3307-0.12-1.0822-0.797-1.4729 0.226-0.0151 0.662 0.2404 0.782 0.5411-0.105-0.6764-0.211-1.1123-0.767-1.488 0.06 0.0676 0.376 0.1277 0.511 0-0.36-0.2255-0.466-0.6012-0.435-0.8417 0.042-0.3365-0.181-0.4059-0.602-0.3006-0.379 0.0947-1.247 0.1503-1.758 0.1503-1.052 0-1.969 0-2.841-0.6012 1.308 0.541 2.976-0.6012 2.976-1.5481 0-1.0522-1.293-1.9089-3.908-1.3377-2.615 0.5711-5.801 0.3306-5.801-0.5411 0-0.8718 2.284-0.992 3.457-0.8116 1.172 0.1803 2.013 0.3006 4.208-0.481-0.541 0.2104-2.285 0.2705-3.667-0.1202-1.383-0.3908-4.78-0.3908-4.81 1.4429-0.03 1.8336 3.617 1.6666 6.764 1.2024 1.833-0.2706 2.795-0.0902 2.795 0.511 0 0.5711-1.683 0.8116-2.976 0.6613-1.292-0.1502-2.615-0.1202-4.148 0.3307-1.28 0.3764-2.164 0-3.577 0.2405-0.685 0.1164-2.345 0-3.164-1.3528-0.504 0.3608-2.022 1.116-2.277 1.8525-0.361 0.6763-0.12 1.349 0.36 2.0103 0.606 0.8323-0.3 0.7064-0.946 0.7365-0.886 0.0412-2.072-0.0941-2.691-0.7966-0.548-0.6225-1.278-1.1214-1.861-0.66-0.3 0.2375-0.012 0.5501 0.225 0.4626 0.235-0.0865 0.513 0.0875 0.764 0.1974-0.401-0.1724-0.842-0.0386-1.014 0.1151-0.237 0.2125 0.051 0.6184 0.338 0.475 0.225-0.1125 0.687-0.1875 0.987 0.0875-0.325-0.0625-0.663-0.0493-0.825 0.125s-0.037 0.4281 0.313 0.4125c0.562-0.025 0.706 0.3688 1.269 0.2879-0.346 0.0451-0.542 0.2254-0.632 0.3607 0.526-0.2405 1.107 0.4078 1.789 0.2555-0.266 0.1095-0.695 0.371-0.691 0.5712 0.405-0.466 3.126 0.3607 3.186-0.6613 0.075 0.2104 0.06 0.526-0.15 0.7966 0.348-0.2105 1.473-0.2856 1.818-1.0973 0.03 0.2405-0.015 0.5562-0.225 0.6313 0.361 0.118 0.836-0.1508 1.322-0.8717 0.193-0.286 0.239-0.4761 0.206-0.6911 0.482 0.0182 0.831-0.1028 1.207-0.4212 0.391-0.3306 0.812 0.2706 1.473-0.1503 0.662-0.4208 1.233-0.0601 1.593-0.2705 0.361-0.2104 0.857 0.0751 1.248-0.1653 0.391-0.2405 0.997 0.1177 1.644-0.3933 1.018 0.3729 2.206 1.0639 5.12 0.5285 1.67-0.3069 2.194 0.2555 2.194 1.0221 0 0.526-0.308 0.5718-0.541 0.5862-0.929 0.0571-1.328-0.3478-1.695-0.218-0.246 0.0876-0.396 0.4876-0.04 0.6251-0.294 0.15-0.256 0.4313-0.106 0.5344s0.537 0.0094 0.8-0.1125c-0.338 0.1531-0.688 0.4281-0.488 0.7156 0.121 0.1745 0.427 0.3224 0.713-0.0499 0.287-0.3751 0.812-0.6876 1.146-0.638z"/>
        <path id="left ear" d="m112.14 24.264c-0.842-0.3456-1.126-0.3551-0.932 0.3307 0.083 0.2931 0.285 0.7064 0.488 0.8943 8e-3 -0.2855 0.113-1.0746 0.444-1.225z"/>
        <path id="right ear" d="m114.77 24.264c0.842-0.3456 1.126-0.3551 0.932 0.3307-0.083 0.2931-0.286 0.7064-0.489 0.8943-7e-3 -0.2855-0.112-1.0746-0.443-1.225z"/>
        <path id="head" d="m113.46 23.802c1.593 0 1.792 0.7477 1.784 1.6795-7e-3 1.007-0.548 0.6613-0.856 1.9539-0.12 0.5054-0.523 0.5336-0.928 0.5336-0.406 0-0.808-0.0282-0.929-0.5336-0.307-1.2926-0.849-0.9469-0.856-1.9539-8e-3 -0.9318 0.191-1.6795 1.785-1.6795z"/>
        <path id="arm" d="m109.36 27.495c-0.406-0.2405-0.668-0.0741-0.833-0.0289 0.526 0.1352 0.547 0.8105 1.75 1.1261-0.271-0.0751-0.421 0.0752-0.677-0.0601 0.496 0.3908 1.052 0.8433 2.225 0.8567 0.654 0.0075 0.202 0.3457-0.226 0.1503 0.444 0.4584 1.323 0.0827 1.879 0.9169 0.105-0.6463-1.037-1.6684-0.511-2.4048-1.622-0.0691-1.755-0.9681-2.69-1.6834-0.761-0.5816-0.829-1.1728-1.165-2.2797-0.153-0.5012-0.74-0.8137-1.065-0.695-0.284 0.1038-0.388 0.3501-0.144 0.5344 0.244 0.1844 0.556 0.2094 0.623 0.6766-0.317-0.3797-0.792-0.5172-1.02-0.2797-0.139 0.1446-0.083 0.482 0.216 0.5126 0.487 0.05 0.137 0.525 0.691 0.9897-0.491-0.5522-0.916-0.6022-1.179-0.3022-0.157 0.1797 0 0.5 0.338 0.4657 0.489-0.0498 1.056 1.1907 1.788 1.5048z"/>
        <path id="leg" d="m122.43 32.139c-0.256 0.0451-0.18 0.466-0.526 0.4961 0.827 0 1.247-0.1955 1.638-0.5111-0.18 0.1052-0.255 0.3758-0.27 0.526 0.436-0.3757 1.473-0.4057 2.014-0.3005s0.631-0.1503 0.826-0.496c0.196-0.3457-0.075-0.5411-0.345-0.8116-0.271-0.2706-0.331-0.6463-0.271-1.2776-1.443-1.9238-4.028-0.992-4.058-0.1503 0.932 1.0821 1.052 0.9619 1.834 1.1122 0.781 0.1503 1.26 0.1499 0.736 0.5862-0.18 0.1503-0.932 0.0797-1.518 0.1052-1.311 0.057-1.911-0.9056-2.298-0.4056-0.319 0.4112 0.01 0.5928 0.66 0.5709-0.45 0.0032-1.047-0.0211-0.945 0.398 0.172 0.7062 0.847-0.1313 1.11 0.1593-0.225-0.0531-0.575 0.0844-0.588 0.2969-0.012 0.2126 0.5 0.4875 1.063 0.0406 0.308-0.245 0.701-0.3367 0.938-0.3387z"/>
      </g>
      <g fill="none" stroke="#000" stroke-width=".125">
        <path d="m123.55 29.206c-0.469-0.1716-0.899-0.2765-1.449-0.1629"/>
        <path d="m116.48 28.983c-0.386 0.8294-0.152 1.2388-0.095 1.6236"/>
        <path d="m112.37 25.052c0.265 0.1325 0.414-0.242 0.803 0.1556-0.107-0.116-0.24 0.3083-0.538 0.0267"/>
        <path d="m114.53 25.052c-0.265 0.1325-0.414-0.242-0.803 0.1556 0.107-0.116 0.24 0.3083 0.538 0.0267"/>
        <path d="m113.73 25.207c-0.091 0.0751-0.1-0.0599-0.031 0.2948 0.128 0.6513 0.279 0.956-0.248 0.956-0.538 0-0.375-0.3047-0.248-0.956 0.07-0.3547 0.061-0.2197-0.03-0.2948"/>
      </g>
      <path d="m113.46 27.706c0.428 0 0.676-0.0075 0.609-0.6087-0.028-0.2413 0.293-0.3374 0.18-0.729 0.12 0.4809-0.789 0.435-0.789 0.217 0 0.218-0.909 0.2639-0.789-0.217-0.113 0.3916 0.207 0.4877 0.18 0.729-0.067 0.6012 0.181 0.6087 0.609 0.6087z" fill="#ff0016" stroke="#000" stroke-width=".0625"/>
      <g stroke="#000" stroke-width=".0625">
        <path d="m113.07 26.489-1.028-0.2868"/>
        <path d="m113.07 26.543-1.148-0.0096"/>
        <path d="m113.08 26.602-0.979 0.2623"/>
        <path d="m113.84 26.489 1.028-0.2868"/>
        <path d="m113.84 26.543 1.148-0.0096"/>
        <path d="m113.83 26.602 0.979 0.2623"/>
      </g>
      <g id="claws and tongue" fill="#0051ba" stroke="#000" stroke-width=".013">
        <path d="m108.13 23.414c-0.299-0.3723-1.048-0.0579-1.063 0.404 0.253-0.2994 0.666 0.1319 0.891 0.0412 0.156-0.0628 0.293-0.2937 0.172-0.4452z"/>
        <path d="m107.75 24.295c-0.299-0.3723-1.047-0.0579-1.062 0.404 0.252-0.2994 0.665 0.1319 0.891 0.0412 0.156-0.0627 0.293-0.2937 0.171-0.4452z"/>
        <path d="m107.55 25.479c-0.339-0.3363-1.047 0.0603-1.01 0.5209 0.218-0.3259 0.676 0.0563 0.89-0.0593 0.148-0.0799 0.258-0.3247 0.12-0.4616z"/>
        <path d="m107.91 29.148c-0.376-0.295-1.033 0.1803-0.944 0.6337 0.179-0.3487 0.678-0.0219 0.877-0.1612 0.138-0.0965 0.22-0.3523 0.067-0.4725z"/>
        <path d="m107.89 29.951c-0.448-0.1652-0.928 0.4894-0.703 0.8933 0.062-0.3868 0.638-0.2294 0.785-0.4234 0.102-0.1342 0.1-0.4026-0.082-0.4699z"/>
        <path d="m108.46 30.551c-0.448-0.1653-0.928 0.4893-0.704 0.8933 0.063-0.3869 0.639-0.2295 0.786-0.4235 0.102-0.1342 0.1-0.4026-0.082-0.4698z"/>
        <path d="m120.2 31.714c-0.448-0.1652-0.928 0.4894-0.703 0.8933 0.063-0.3868 0.638-0.2294 0.785-0.4234 0.102-0.1342 0.1-0.4026-0.082-0.4699z"/>
        <path d="m120.81 32.258c-0.464-0.1132-0.866 0.5918-0.597 0.9675 0.018-0.3915 0.608-0.3006 0.732-0.5101 0.086-0.1449 0.054-0.4114-0.135-0.4574z"/>
        <path d="m120.38 30.942c-0.414-0.239-0.998 0.3245-0.845 0.7607 0.128-0.3705 0.668-0.1175 0.846-0.2836 0.123-0.115 0.167-0.3798-1e-3 -0.4771z"/>
        <path d="m128.73 31.883c-0.464-0.1131-0.866 0.5918-0.597 0.9676 0.019-0.3915 0.609-0.3006 0.732-0.5101 0.086-0.1449 0.054-0.4114-0.135-0.4575z"/>
        <path d="m128.75 31.146c-0.421-0.2246-0.985 0.3587-0.818 0.7894 0.115-0.3747 0.664-0.1404 0.836-0.3126 0.119-0.1192 0.154-0.3853-0.018-0.4768z"/>
        <path d="m129.07 32.542c-0.468-0.0928-0.839 0.6291-0.554 0.9927 2e-3 -0.3919 0.595-0.327 0.709-0.5416 0.08-0.1486 0.036-0.4134-0.155-0.4511z"/>
        <path d="m113.49 27.345c0.294 0 0.413 0.0858 0.413 0.6169 0 1.1252-0.013 1.609-0.375 1.609-0.363 0-0.338-0.4597-0.338-1.2858 0-0.431 0-0.6465-0.087-0.6106 0-0.2812 0.125-0.3295 0.387-0.3295z"/>
      </g>
    </g>
    <use transform="translate(11.6,13.7) scale(.9)" xlink:href="#leopard"/>
    <use transform="translate(39.2,27.5) scale(.67,.75)" xlink:href="#leopard"/>
  </g>
</svg>

<?xml version="1.0" encoding="UTF-8"?>
<svg version="1.0" xmlns="http://www.w3.org/2000/svg" xmlns:xlink="http://www.w3.org/1999/xlink" width="1000" height="600" viewBox="0,0 30,18">
	<rect width="30" height="18" fill="#fff"/>
	<path d="M 0 0 L 0 1.15625 L 13.0625 9 L 0 16.84375 L 0 18 L 1.96875 18 L 15 10.15625 L 28.03125 18 L 30 18 L 30 16.84375 L 16.9375 9 L 30 1.15625 L 30 0 L 28.03125 0 L 15 7.84375 L 1.96875 0 L 0 0 z" fill="#df112d" fill-rule="evenodd"/>
	<g id="Jersey badge" transform="matrix(4.072196e-2,0,0,4.072196e-2,12.94021,10.55291) matrix(3,0,0,3,-308.8556,-259.7129)">
		<path id="shield" d="M 132.662,22.2327 C 135.818,35.0109 134.087,50.7927 119.833,59.549 C 105.578,50.7927 103.847,35.0109 107.004,22.2327 C 110.364,19.1781 125.636,17.2945 132.662,22.2327 z" fill="#e8112d" stroke="#000" stroke-width=".125"/>
		<path id="crown" d="M 119.812,19.6672 C 125.038,19.6672 129.905,21.0504 132.774,22.8436 C 133.337,18.4377 135.335,14.0319 137.692,10.7019 C 135.233,10.6506 134.131,11.957 134.106,13.3146 C 133.491,11.5728 131.083,11.6752 130.34,12.623 C 133.03,14.4417 130.955,17.6692 128.522,17.0033 C 127.379,16.6906 126.775,15.8936 126.561,14.7365 C 126.824,14.7189 127.085,14.6226 127.305,14.444 C 127.872,13.984 127.959,13.1513 127.499,12.5842 C 127.039,12.0171 126.207,11.9302 125.639,12.3902 C 125.072,12.8502 124.985,13.6829 125.446,14.25 C 125.596,14.4363 125.789,14.5685 125.997,14.6488 C 125.228,15.904 123.849,16.2808 122.861,16.0042 C 121.58,15.6456 121.042,14.4929 121.042,13.4683 C 121.042,10.8043 123.603,10.3945 124.372,10.8556 C 124.321,9.06253 121.503,7.62802 120.632,9.11371 C 121.605,7.37192 121.554,4.91281 119.812,3.27344 C 118.071,4.91281 118.019,7.37192 118.993,9.11371 C 118.122,7.62802 115.304,9.06253 115.253,10.8556 C 116.021,10.3945 118.583,10.8043 118.583,13.4683 C 118.583,14.4929 118.045,15.6456 116.764,16.0042 C 115.776,16.2808 114.397,15.904 113.627,14.6488 C 113.836,14.5685 114.028,14.4363 114.179,14.25 C 114.639,13.6829 114.552,12.8502 113.985,12.3902 C 113.418,11.9302 112.585,12.0171 112.125,12.5842 C 111.665,13.1513 111.752,13.984 112.319,14.444 C 112.54,14.6226 112.801,14.7189 113.064,14.7365 C 112.85,15.8936 112.245,16.6906 111.103,17.0033 C 108.67,17.6692 106.595,14.4417 109.284,12.623 C 108.542,11.6752 106.134,11.5728 105.519,13.3146 C 105.493,11.957 104.392,10.6506 101.933,10.7019 C 104.289,14.0319 106.287,18.4377 106.851,22.8436 C 109.72,21.0504 114.587,19.6672 119.812,19.6672 z" fill="#f9dd16" stroke="#000" stroke-width=".125"/>
		<g id="leopard">
			<g fill="#f9dd16" stroke="#000" stroke-width=".125">
				<path id="body" d="M 130.653,32.1996 C 130.338,32.2747 130.338,32.6806 130.173,32.6806 C 130.992,32.658 131.39,32.4326 131.638,32.0192 C 131.458,32.1845 131.615,32.5002 131.555,32.5753 C 132.156,32.3649 132.442,31.8539 132.232,31.5082 C 132.367,31.7035 132.758,31.8088 132.878,31.8238 C 132.457,31.4931 132.758,30.7416 132.081,30.3509 C 132.307,30.3358 132.743,30.5913 132.863,30.892 C 132.758,30.2156 132.652,29.7797 132.096,29.404 C 132.156,29.4716 132.472,29.5317 132.607,29.404 C 132.247,29.1785 132.141,28.8028 132.172,28.5623 C 132.214,28.2258 131.991,28.1564 131.57,28.2617 C 131.191,28.3564 130.323,28.412 129.812,28.412 C 128.76,28.412 127.843,28.412 126.971,27.8108 C 128.279,28.3518 129.947,27.2096 129.947,26.2627 C 129.947,25.2105 128.654,24.3538 126.039,24.925 C 123.424,25.4961 120.238,25.2556 120.238,24.3839 C 120.238,23.5121 122.522,23.3919 123.695,23.5723 C 124.867,23.7526 125.708,23.8729 127.903,23.0913 C 127.362,23.3017 125.618,23.3618 124.236,22.9711 C 122.853,22.5803 119.456,22.5803 119.426,24.414 C 119.396,26.2476 123.043,26.0806 126.19,25.6164 C 128.023,25.3458 128.985,25.5262 128.985,26.1274 C 128.985,26.6985 127.302,26.939 126.009,26.7887 C 124.717,26.6385 123.394,26.6685 121.861,27.1194 C 120.581,27.4958 119.697,27.1194 118.284,27.3599 C 117.599,27.4763 115.939,27.3599 115.12,26.0071 C 114.616,26.3679 113.098,27.1231 112.843,27.8596 C 112.482,28.5359 112.723,29.2086 113.203,29.8699 C 113.809,30.7022 112.903,30.5763 112.257,30.6064 C 111.371,30.6476 110.185,30.5123 109.566,29.8098 C 109.018,29.1873 108.288,28.6884 107.705,29.1498 C 107.405,29.3873 107.693,29.6999 107.93,29.6124 C 108.165,29.5259 108.443,29.6999 108.694,29.8098 C 108.293,29.6374 107.852,29.7712 107.68,29.9249 C 107.443,30.1374 107.731,30.5433 108.018,30.3999 C 108.243,30.2874 108.705,30.2124 109.005,30.4874 C 108.68,30.4249 108.342,30.4381 108.18,30.6124 C 108.018,30.7867 108.143,31.0405 108.493,31.0249 C 109.055,30.9999 109.199,31.3937 109.762,31.3128 C 109.416,31.3579 109.22,31.5382 109.13,31.6735 C 109.656,31.433 110.237,32.0813 110.919,31.929 C 110.653,32.0385 110.224,32.3 110.228,32.5002 C 110.633,32.0342 113.354,32.8609 113.414,31.8389 C 113.489,32.0493 113.474,32.3649 113.264,32.6355 C 113.612,32.425 114.737,32.3499 115.082,31.5382 C 115.112,31.7787 115.067,32.0944 114.857,32.1695 C 115.218,32.2875 115.693,32.0187 116.179,31.2978 C 116.372,31.0118 116.418,30.8217 116.385,30.6067 C 116.867,30.6249 117.216,30.5039 117.592,30.1855 C 117.983,29.8549 118.404,30.4561 119.065,30.0352 C 119.727,29.6144 120.298,29.9751 120.658,29.7647 C 121.019,29.5543 121.515,29.8398 121.906,29.5994 C 122.297,29.3589 122.903,29.7171 123.55,29.2061 C 124.568,29.579 125.756,30.27 128.67,29.7346 C 130.34,29.4277 130.864,29.9901 130.864,30.7567 C 130.864,31.2827 130.556,31.3285 130.323,31.3429 C 129.394,31.4 128.995,30.9951 128.628,31.1249 C 128.382,31.2125 128.232,31.6125 128.588,31.75 C 128.294,31.9 128.332,32.1813 128.482,32.2844 C 128.632,32.3875 129.019,32.2938 129.282,32.1719 C 128.944,32.325 128.594,32.6 128.794,32.8875 C 128.915,33.062 129.221,33.2099 129.507,32.8376 C 129.794,32.4625 130.319,32.15 130.653,32.1996 z"/>
				<path id="left ear" d="M 112.144,24.2636 C 111.302,23.918 111.018,23.9085 111.212,24.5943 C 111.295,24.8874 111.497,25.3007 111.7,25.4886 C 111.708,25.2031 111.813,24.414 112.144,24.2636 z"/>
				<path id="right ear" d="M 114.774,24.2636 C 115.616,23.918 115.9,23.9085 115.706,24.5943 C 115.623,24.8874 115.42,25.3007 115.217,25.4886 C 115.21,25.2031 115.105,24.414 114.774,24.2636 z"/>
				<path id="head" d="M 113.463,23.8016 C 115.056,23.8016 115.255,24.5493 115.247,25.4811 C 115.24,26.4881 114.699,26.1424 114.391,27.435 C 114.271,27.9404 113.868,27.9686 113.463,27.9686 C 113.057,27.9686 112.655,27.9404 112.534,27.435 C 112.227,26.1424 111.685,26.4881 111.678,25.4811 C 111.67,24.5493 111.869,23.8016 113.463,23.8016 z"/>
				<path id="arm" d="M 109.356,27.4951 C 108.95,27.2546 108.688,27.421 108.523,27.4662 C 109.049,27.6014 109.07,28.2767 110.273,28.5923 C 110.002,28.5172 109.852,28.6675 109.596,28.5322 C 110.092,28.923 110.648,29.3755 111.821,29.3889 C 112.475,29.3964 112.023,29.7346 111.595,29.5392 C 112.039,29.9976 112.918,29.6219 113.474,30.4561 C 113.579,29.8098 112.437,28.7877 112.963,28.0513 C 111.341,27.9822 111.208,27.0832 110.273,26.3679 C 109.512,25.7863 109.444,25.1951 109.108,24.0882 C 108.955,23.587 108.368,23.2745 108.043,23.3932 C 107.759,23.497 107.655,23.7433 107.899,23.9276 C 108.143,24.112 108.455,24.137 108.522,24.6042 C 108.205,24.2245 107.73,24.087 107.502,24.3245 C 107.363,24.4691 107.419,24.8065 107.718,24.8371 C 108.205,24.8871 107.855,25.3621 108.409,25.8268 C 107.918,25.2746 107.493,25.2246 107.23,25.5246 C 107.073,25.7043 107.23,26.0246 107.568,25.9903 C 108.057,25.9405 108.624,27.181 109.356,27.4951 z"/>
				<path id="leg" d="M 122.432,32.1394 C 122.176,32.1845 122.252,32.6054 121.906,32.6355 C 122.733,32.6355 123.153,32.44 123.544,32.1244 C 123.364,32.2296 123.289,32.5002 123.274,32.6504 C 123.71,32.2747 124.747,32.2447 125.288,32.3499 C 125.829,32.4551 125.919,32.1996 126.114,31.8539 C 126.31,31.5082 126.039,31.3128 125.769,31.0423 C 125.498,30.7717 125.438,30.396 125.498,29.7647 C 124.055,27.8409 121.47,28.7727 121.44,29.6144 C 122.372,30.6965 122.492,30.5763 123.274,30.7266 C 124.055,30.8769 124.534,30.8765 124.01,31.3128 C 123.83,31.4631 123.078,31.3925 122.492,31.418 C 121.181,31.475 120.581,30.5124 120.194,31.0124 C 119.875,31.4236 120.204,31.6052 120.854,31.5833 C 120.404,31.5865 119.807,31.5622 119.909,31.9813 C 120.081,32.6875 120.756,31.85 121.019,32.1406 C 120.794,32.0875 120.444,32.225 120.431,32.4375 C 120.419,32.6501 120.931,32.925 121.494,32.4781 C 121.802,32.2331 122.195,32.1414 122.432,32.1394 z"/>
			</g>
			<g fill="none" stroke="#000" stroke-width=".125">
				<path d="M 123.55,29.2061 C 123.081,29.0345 122.651,28.9296 122.101,29.0432"/>
				<path d="M 116.48,28.9831 C 116.094,29.8125 116.328,30.2219 116.385,30.6067"/>
				<path d="M 112.37,25.0516 C 112.635,25.1841 112.784,24.8096 113.173,25.2072 C 113.066,25.0912 112.933,25.5155 112.635,25.2339"/>
				<path d="M 114.533,25.0516 C 114.268,25.1841 114.119,24.8096 113.73,25.2072 C 113.837,25.0912 113.97,25.5155 114.268,25.2339"/>
				<path d="M 113.73,25.2072 C 113.639,25.2823 113.63,25.1473 113.699,25.502 C 113.827,26.1533 113.978,26.458 113.451,26.458 C 112.913,26.458 113.076,26.1533 113.203,25.502 C 113.273,25.1473 113.264,25.2823 113.173,25.2072"/>
			</g>
			<path d="M 113.459,27.7056 C 113.887,27.7056 114.135,27.6981 114.068,27.0969 C 114.04,26.8556 114.361,26.7595 114.248,26.3679 C 114.368,26.8488 113.459,26.8029 113.459,26.5849 C 113.459,26.8029 112.55,26.8488 112.67,26.3679 C 112.557,26.7595 112.877,26.8556 112.85,27.0969 C 112.783,27.6981 113.031,27.7056 113.459,27.7056 z" fill="#ff0016" stroke="#000" stroke-width=".0625"/>
			<g stroke="#000" stroke-width=".0625">
				<path d="M 113.074,26.4894 L 112.046,26.2026"/>
				<path d="M 113.074,26.5428 L 111.926,26.5332"/>
				<path d="M 113.085,26.6016 L 112.106,26.8639"/>
				<path d="M 113.844,26.4894 L 114.872,26.2026"/>
				<path d="M 113.844,26.5428 L 114.992,26.5332"/>
				<path d="M 113.833,26.6016 L 114.812,26.8639"/>
			</g>
			<g id="claws and tongue" fill="#0051ba" stroke="#000" stroke-width=".013">
				<path d="M 108.134,23.4136 C 107.835,23.0413 107.086,23.3557 107.071,23.8176 C 107.324,23.5182 107.737,23.9495 107.962,23.8588 C 108.118,23.796 108.255,23.5651 108.134,23.4136 z"/>
				<path d="M 107.746,24.2949 C 107.447,23.9226 106.699,24.237 106.684,24.6989 C 106.936,24.3995 107.349,24.8308 107.575,24.7401 C 107.731,24.6774 107.868,24.4464 107.746,24.2949 z"/>
				<path d="M 107.551,25.4788 C 107.212,25.1425 106.504,25.5391 106.541,25.9997 C 106.759,25.6738 107.217,26.056 107.431,25.9404 C 107.579,25.8605 107.689,25.6157 107.551,25.4788 z"/>
				<path d="M 107.908,29.1479 C 107.532,28.8529 106.875,29.3282 106.964,29.7816 C 107.143,29.4329 107.642,29.7597 107.841,29.6204 C 107.979,29.5239 108.061,29.2681 107.908,29.1479 z"/>
				<path d="M 107.889,29.9509 C 107.441,29.7857 106.961,30.4403 107.186,30.8442 C 107.248,30.4574 107.824,30.6148 107.971,30.4208 C 108.073,30.2866 108.071,30.0182 107.889,29.9509 z"/>
				<path d="M 108.464,30.551 C 108.016,30.3857 107.536,31.0403 107.76,31.4443 C 107.823,31.0574 108.399,31.2148 108.546,31.0208 C 108.648,30.8866 108.646,30.6182 108.464,30.551 z"/>
				<path d="M 120.202,31.7135 C 119.754,31.5483 119.274,32.2029 119.499,32.6068 C 119.562,32.22 120.137,32.3774 120.284,32.1834 C 120.386,32.0492 120.384,31.7808 120.202,31.7135 z"/>
				<path d="M 120.807,32.2581 C 120.343,32.1449 119.941,32.8499 120.21,33.2256 C 120.228,32.8341 120.818,32.925 120.942,32.7155 C 121.028,32.5706 120.996,32.3041 120.807,32.2581 z"/>
				<path d="M 120.381,30.9425 C 119.967,30.7035 119.383,31.267 119.536,31.7032 C 119.664,31.3327 120.204,31.5857 120.382,31.4196 C 120.505,31.3046 120.549,31.0398 120.381,30.9425 z"/>
				<path d="M 128.732,31.883 C 128.268,31.7699 127.866,32.4748 128.135,32.8506 C 128.154,32.4591 128.744,32.55 128.867,32.3405 C 128.953,32.1956 128.921,31.9291 128.732,31.883 z"/>
				<path d="M 128.746,31.1458 C 128.325,30.9212 127.761,31.5045 127.928,31.9352 C 128.043,31.5605 128.592,31.7948 128.764,31.6226 C 128.883,31.5034 128.918,31.2373 128.746,31.1458 z"/>
				<path d="M 129.072,32.5419 C 128.604,32.4491 128.233,33.171 128.518,33.5346 C 128.52,33.1427 129.113,33.2076 129.227,32.993 C 129.307,32.8444 129.263,32.5796 129.072,32.5419 z"/>
				<path d="M 113.493,27.3452 C 113.787,27.3452 113.906,27.431 113.906,27.9621 C 113.906,29.0873 113.893,29.5711 113.531,29.5711 C 113.168,29.5711 113.193,29.1114 113.193,28.2853 C 113.193,27.8543 113.193,27.6388 113.106,27.6747 C 113.106,27.3935 113.231,27.3452 113.493,27.3452 z"/>
			</g>
		</g>
		<use xlink:href="#leopard" transform="translate(11.6,13.7) scale(.9)"/>
		<use xlink:href="#leopard" transform="translate(39.2,27.5) scale(.67,.75)"/>
	</g>
</svg>
